dist/svg/object-arrow-o.svg

<!-- Generated by Trend Micro Style Portal -->
<svg version="1.1" xmlns="http://www.w3.org/2000/svg" width="16" height="16" viewBox="0 0 16 16">
  <title>object-arrow-o</title>
  <path fill="rgb(34,34,34)" d="M3 15h8v1h-8c-0.552 0-1-0.448-1-1v0-14c0-0.552 0.448-1 1-1v0h10c0.552 0 1 0.448 1 1v0 6h-1v-6h-10zM12 7v-5h-8v12h3v-1h-2v-10h6v4zM14 10l-2-2v3h-4v2h4v3l4-4z"></path>
</svg>

<svg width="16" height="16" viewBox="0 0 16 16" fill="rgb(34, 34, 34)" xmlns="http://www.w3.org/2000/svg"><title>object-arrow-o</title><path d="M3 15H11V16H3C2.448 16 2 15.552 2 15V1C2 0.448 2.448 0 3 0H13C13.552 0 14 0.448 14 1V7H13V1H3V15ZM12 7V2H4V14H7V13H5V3H11V7H12ZM14 10L12 8V11H8V13H12V16L16 12L14 10Z" fill="rgb(34, 34, 34)" fill-opacity="1.00"/></svg>
